X:110
T:Tie the Bonnet
T:Jenny, Tie Your Bonnet
S:as recorded by Blackthorn (banjo lead)
N:compare with recording on Music at Matt Molloy's. Transcribed by Alan Ng
C:Trad
R:reel
Z: id:ng-reels-22 transcribed by Alan Ng agng@students.wisc.edu Nov. 30, 1997
M:C|
K:ADor
A2Ag fdec|A2Ac BGGB|A2Ag fdef|~g3e dBGB::\
AAAf gfed|[~^c2~E2][ec][ec] [fc][fc][ec][ec]|~A2af gfef|ggge dBGB:|
